X: 1
T: Mike MacDougall's
M: 6/8
L: 1/8
R: jig
K: Gmaj
|: FE | D2 D GAB | BAB edB | BdB GAB | c2 B AGE |
DB,/C/D GAB | BAB def | g2 g e/f/ge | dBA G :|
|:B/c/d |gag edB | dgb agf | g2 e dBd | gab a2 b |
age dBd | g2 g aga | bag e/f/ge | dBA G :|
|: zE |DB,D GAB | BAB edB | BdB GAB | c2 B AGE |
D^CD GAB | BAB def | gag edB | AGF G :|
|: Bd | g2 e dBd | gab agf | g2 e dBd | gab a2 b |
age dBd | g2 g aga | bag edB | AGF G :|
